images/3233673.svg

<?xml version="1.0" encoding="UTF-8"?>
<svg xmlns="http://www.w3.org/2000/svg" xmlns:xlink="http://www.w3.org/1999/xlink" width="300pt" height="300pt" viewBox="0 0 300 300" version="1.1">
<defs>
<g>
<symbol overflow="visible" id="glyph0-0">
<path style="stroke:none;" d="M 0.453125 1.59375 L 0.453125 -6.34375 L 4.953125 -6.34375 L 4.953125 1.59375 Z M 0.953125 1.09375 L 4.453125 1.09375 L 4.453125 -5.84375 L 0.953125 -5.84375 Z M 0.953125 1.09375 "/>
</symbol>
<symbol overflow="visible" id="glyph0-1">
<path style="stroke:none;" d="M 3.546875 -5.953125 C 2.898438 -5.953125 2.382812 -5.710938 2 -5.234375 C 1.625 -4.753906 1.4375 -4.101562 1.4375 -3.28125 C 1.4375 -2.445312 1.625 -1.789062 2 -1.3125 C 2.382812 -0.832031 2.898438 -0.59375 3.546875 -0.59375 C 4.191406 -0.59375 4.703125 -0.832031 5.078125 -1.3125 C 5.453125 -1.789062 5.640625 -2.445312 5.640625 -3.28125 C 5.640625 -4.101562 5.453125 -4.753906 5.078125 -5.234375 C 4.703125 -5.710938 4.191406 -5.953125 3.546875 -5.953125 Z M 3.546875 -6.6875 C 4.460938 -6.6875 5.195312 -6.375 5.75 -5.75 C 6.300781 -5.132812 6.578125 -4.3125 6.578125 -3.28125 C 6.578125 -2.238281 6.300781 -1.410156 5.75 -0.796875 C 5.195312 -0.179688 4.460938 0.125 3.546875 0.125 C 2.617188 0.125 1.878906 -0.179688 1.328125 -0.796875 C 0.773438 -1.410156 0.5 -2.238281 0.5 -3.28125 C 0.5 -4.3125 0.773438 -5.132812 1.328125 -5.75 C 1.878906 -6.375 2.617188 -6.6875 3.546875 -6.6875 Z M 3.546875 -6.6875 "/>
</symbol>
<symbol overflow="visible" id="glyph0-2">
<path style="stroke:none;" d="M 0.890625 -6.5625 L 2.078125 -6.5625 L 4.984375 -1.078125 L 4.984375 -6.5625 L 5.84375 -6.5625 L 5.84375 0 L 4.65625 0 L 1.75 -5.484375 L 1.75 0 L 0.890625 0 Z M 0.890625 -6.5625 "/>
</symbol>
</g>
</defs>
<g id="surface33377">
<rect x="0" y="0" width="300" height="300" style="fill:rgb(100%,100%,100%);fill-opacity:1;stroke:none;"/>
<path style="fill:none;stroke-width:1.2;stroke-linecap:butt;stroke-linejoin:miter;stroke:rgb(0%,0%,0%);stroke-opacity:1;stroke-miterlimit:10;" d="M 40.820312 98.332031 L 38.035156 108.835938 "/>
<path style="fill:none;stroke-width:1.2;stroke-linecap:butt;stroke-linejoin:miter;stroke:rgb(100%,0%,0%);stroke-opacity:1;stroke-miterlimit:10;" d="M 38.035156 108.835938 L 35.25 119.34375 "/>
<path style="fill:none;stroke-width:1.2;stroke-linecap:butt;stroke-linejoin:miter;stroke:rgb(100%,0%,0%);stroke-opacity:1;stroke-miterlimit:10;" d="M 35.25 119.34375 L 42.957031 127.007812 "/>
<path style="fill:none;stroke-width:1.2;stroke-linecap:butt;stroke-linejoin:miter;stroke:rgb(0%,0%,0%);stroke-opacity:1;stroke-miterlimit:10;" d="M 42.957031 127.007812 L 50.664062 134.671875 "/>
<path style=" stroke:none;fill-rule:nonzero;fill:rgb(100%,100%,100%);fill-opacity:1;" d="M 31.25 113.84375 L 39.25 113.84375 L 39.25 124.84375 L 31.25 124.84375 Z M 31.25 113.84375 "/>
<g style="fill:rgb(100%,0%,0%);fill-opacity:1;">
  <use xlink:href="#glyph0-1" x="31.25" y="122.506836"/>
</g>
<path style="fill:none;stroke-width:1.2;stroke-linecap:butt;stroke-linejoin:miter;stroke:rgb(0%,0%,0%);stroke-opacity:1;stroke-miterlimit:10;" d="M 50.664062 134.671875 L 71.644531 128.988281 "/>
<path style="fill:none;stroke-width:1.2;stroke-linecap:butt;stroke-linejoin:miter;stroke:rgb(0%,0%,0%);stroke-opacity:1;stroke-miterlimit:10;" d="M 54.097656 139.039062 L 70.882812 134.492188 "/>
<path style="fill:none;stroke-width:1.2;stroke-linecap:butt;stroke-linejoin:miter;stroke:rgb(0%,0%,0%);stroke-opacity:1;stroke-miterlimit:10;" d="M 45.09375 155.683594 L 50.664062 134.671875 "/>
<path style="fill:none;stroke-width:1.2;stroke-linecap:butt;stroke-linejoin:miter;stroke:rgb(0%,0%,0%);stroke-opacity:1;stroke-miterlimit:10;" d="M 71.644531 128.988281 L 87.054688 144.316406 "/>
<path style="fill:none;stroke-width:1.2;stroke-linecap:butt;stroke-linejoin:miter;stroke:rgb(0%,0%,0%);stroke-opacity:1;stroke-miterlimit:10;" d="M 87.054688 144.316406 L 81.488281 165.328125 "/>
<path style="fill:none;stroke-width:1.2;stroke-linecap:butt;stroke-linejoin:miter;stroke:rgb(0%,0%,0%);stroke-opacity:1;stroke-miterlimit:10;" d="M 81.554688 145.109375 L 77.101562 161.917969 "/>
<path style="fill:none;stroke-width:1.2;stroke-linecap:butt;stroke-linejoin:miter;stroke:rgb(0%,0%,0%);stroke-opacity:1;stroke-miterlimit:10;" d="M 81.488281 165.328125 L 60.507812 171.011719 "/>
<path style="fill:none;stroke-width:1.2;stroke-linecap:butt;stroke-linejoin:miter;stroke:rgb(0%,0%,0%);stroke-opacity:1;stroke-miterlimit:10;" d="M 81.488281 165.328125 L 96.898438 180.65625 "/>
<path style="fill:none;stroke-width:1.2;stroke-linecap:butt;stroke-linejoin:miter;stroke:rgb(0%,0%,0%);stroke-opacity:1;stroke-miterlimit:10;" d="M 60.507812 171.011719 L 45.09375 155.683594 "/>
<path style="fill:none;stroke-width:1.2;stroke-linecap:butt;stroke-linejoin:miter;stroke:rgb(0%,0%,0%);stroke-opacity:1;stroke-miterlimit:10;" d="M 62.570312 165.851562 L 50.242188 153.589844 "/>
<path style="fill:none;stroke-width:1.2;stroke-linecap:butt;stroke-linejoin:miter;stroke:rgb(0%,0%,0%);stroke-opacity:1;stroke-miterlimit:10;" d="M 94.429688 180.003906 L 91.644531 190.507812 "/>
<path style="fill:none;stroke-width:1.2;stroke-linecap:butt;stroke-linejoin:miter;stroke:rgb(100%,0%,0%);stroke-opacity:1;stroke-miterlimit:10;" d="M 91.644531 190.507812 L 88.859375 201.015625 "/>
<path style="fill:none;stroke-width:1.2;stroke-linecap:butt;stroke-linejoin:miter;stroke:rgb(0%,0%,0%);stroke-opacity:1;stroke-miterlimit:10;" d="M 99.371094 181.3125 L 96.585938 191.820312 "/>
<path style="fill:none;stroke-width:1.2;stroke-linecap:butt;stroke-linejoin:miter;stroke:rgb(100%,0%,0%);stroke-opacity:1;stroke-miterlimit:10;" d="M 96.585938 191.820312 L 93.804688 202.324219 "/>
<path style="fill:none;stroke-width:1.2;stroke-linecap:butt;stroke-linejoin:miter;stroke:rgb(0%,0%,0%);stroke-opacity:1;stroke-miterlimit:10;" d="M 96.898438 180.65625 L 107.390625 177.816406 "/>
<path style="fill:none;stroke-width:1.2;stroke-linecap:butt;stroke-linejoin:miter;stroke:rgb(0%,0%,100%);stroke-opacity:1;stroke-miterlimit:10;" d="M 107.390625 177.816406 L 117.882812 174.972656 "/>
<path style=" stroke:none;fill-rule:nonzero;fill:rgb(100%,100%,100%);fill-opacity:1;" d="M 87.332031 196.167969 L 95.332031 196.167969 L 95.332031 207.167969 L 87.332031 207.167969 Z M 87.332031 196.167969 "/>
<g style="fill:rgb(100%,0%,0%);fill-opacity:1;">
  <use xlink:href="#glyph0-1" x="87.332031" y="204.831055"/>
</g>
<path style="fill:none;stroke-width:1.2;stroke-linecap:butt;stroke-linejoin:miter;stroke:rgb(0%,0%,100%);stroke-opacity:1;stroke-miterlimit:10;" d="M 117.882812 174.972656 L 125.585938 182.636719 "/>
<path style="fill:none;stroke-width:1.2;stroke-linecap:butt;stroke-linejoin:miter;stroke:rgb(0%,0%,0%);stroke-opacity:1;stroke-miterlimit:10;" d="M 125.585938 182.636719 L 133.292969 190.300781 "/>
<path style="fill:none;stroke-width:1.2;stroke-linecap:butt;stroke-linejoin:miter;stroke:rgb(0%,0%,0%);stroke-opacity:1;stroke-miterlimit:10;" d="M 123.449219 153.960938 L 120.664062 164.46875 "/>
<path style="fill:none;stroke-width:1.2;stroke-linecap:butt;stroke-linejoin:miter;stroke:rgb(0%,0%,100%);stroke-opacity:1;stroke-miterlimit:10;" d="M 120.664062 164.46875 L 117.882812 174.972656 "/>
<path style=" stroke:none;fill-rule:nonzero;fill:rgb(100%,100%,100%);fill-opacity:1;" d="M 114.882812 169.472656 L 121.882812 169.472656 L 121.882812 180.472656 L 114.882812 180.472656 Z M 114.882812 169.472656 "/>
<g style="fill:rgb(0%,0%,100%);fill-opacity:1;">
  <use xlink:href="#glyph0-2" x="114.882812" y="178.135742"/>
</g>
<path style="fill:none;stroke-width:1.2;stroke-linecap:butt;stroke-linejoin:miter;stroke:rgb(0%,0%,0%);stroke-opacity:1;stroke-miterlimit:10;" d="M 133.292969 190.300781 L 154.273438 184.621094 "/>
<path style="fill:none;stroke-width:1.2;stroke-linecap:butt;stroke-linejoin:miter;stroke:rgb(0%,0%,0%);stroke-opacity:1;stroke-miterlimit:10;" d="M 154.273438 184.621094 L 159.84375 163.605469 "/>
<path style="fill:none;stroke-width:1.2;stroke-linecap:butt;stroke-linejoin:miter;stroke:rgb(0%,0%,0%);stroke-opacity:1;stroke-miterlimit:10;" d="M 159.84375 163.605469 L 175.257812 178.9375 "/>
<path style="fill:none;stroke-width:1.2;stroke-linecap:butt;stroke-linejoin:miter;stroke:rgb(0%,0%,0%);stroke-opacity:1;stroke-miterlimit:10;" d="M 159.84375 163.605469 L 144.429688 148.277344 "/>
<path style="fill:none;stroke-width:1.2;stroke-linecap:butt;stroke-linejoin:miter;stroke:rgb(0%,0%,0%);stroke-opacity:1;stroke-miterlimit:10;" d="M 165.414062 142.59375 L 159.84375 163.605469 "/>
<path style="fill:none;stroke-width:1.2;stroke-linecap:butt;stroke-linejoin:miter;stroke:rgb(0%,0%,0%);stroke-opacity:1;stroke-miterlimit:10;" d="M 175.257812 178.9375 L 196.238281 173.253906 "/>
<path style="fill:none;stroke-width:1.2;stroke-linecap:butt;stroke-linejoin:miter;stroke:rgb(0%,0%,0%);stroke-opacity:1;stroke-miterlimit:10;" d="M 196.238281 173.253906 L 199.023438 162.746094 "/>
<path style="fill:none;stroke-width:1.2;stroke-linecap:butt;stroke-linejoin:miter;stroke:rgb(0%,0%,100%);stroke-opacity:1;stroke-miterlimit:10;" d="M 199.023438 162.746094 L 201.804688 152.242188 "/>
<path style="fill:none;stroke-width:1.2;stroke-linecap:butt;stroke-linejoin:miter;stroke:rgb(0%,0%,100%);stroke-opacity:1;stroke-miterlimit:10;" d="M 201.804688 152.242188 L 194.101562 144.578125 "/>
<path style="fill:none;stroke-width:1.2;stroke-linecap:butt;stroke-linejoin:miter;stroke:rgb(0%,0%,0%);stroke-opacity:1;stroke-miterlimit:10;" d="M 194.101562 144.578125 L 186.394531 136.910156 "/>
<path style="fill:none;stroke-width:1.2;stroke-linecap:butt;stroke-linejoin:miter;stroke:rgb(0%,0%,100%);stroke-opacity:1;stroke-miterlimit:10;" d="M 201.804688 152.242188 L 212.296875 149.398438 "/>
<path style="fill:none;stroke-width:1.2;stroke-linecap:butt;stroke-linejoin:miter;stroke:rgb(0%,0%,0%);stroke-opacity:1;stroke-miterlimit:10;" d="M 212.296875 149.398438 L 222.789062 146.558594 "/>
<path style=" stroke:none;fill-rule:nonzero;fill:rgb(100%,100%,100%);fill-opacity:1;" d="M 198.804688 146.742188 L 205.804688 146.742188 L 205.804688 157.742188 L 198.804688 157.742188 Z M 198.804688 146.742188 "/>
<g style="fill:rgb(0%,0%,100%);fill-opacity:1;">
  <use xlink:href="#glyph0-2" x="198.804688" y="155.405273"/>
</g>
<path style="fill:none;stroke-width:1.2;stroke-linecap:butt;stroke-linejoin:miter;stroke:rgb(0%,0%,0%);stroke-opacity:1;stroke-miterlimit:10;" d="M 186.394531 136.910156 L 165.414062 142.59375 "/>
<path style="fill:none;stroke-width:1.2;stroke-linecap:butt;stroke-linejoin:miter;stroke:rgb(0%,0%,0%);stroke-opacity:1;stroke-miterlimit:10;" d="M 222.789062 146.558594 L 230.492188 154.222656 "/>
<path style="fill:none;stroke-width:1.2;stroke-linecap:butt;stroke-linejoin:miter;stroke:rgb(0%,0%,100%);stroke-opacity:1;stroke-miterlimit:10;" d="M 230.492188 154.222656 L 238.199219 161.886719 "/>
<path style="fill:none;stroke-width:1.2;stroke-linecap:butt;stroke-linejoin:miter;stroke:rgb(0%,0%,0%);stroke-opacity:1;stroke-miterlimit:10;" d="M 227.933594 144.464844 L 234.101562 150.59375 "/>
<path style="fill:none;stroke-width:1.2;stroke-linecap:butt;stroke-linejoin:miter;stroke:rgb(0%,0%,100%);stroke-opacity:1;stroke-miterlimit:10;" d="M 234.101562 150.59375 L 240.265625 156.726562 "/>
<path style="fill:none;stroke-width:1.2;stroke-linecap:butt;stroke-linejoin:miter;stroke:rgb(0%,0%,100%);stroke-opacity:1;stroke-miterlimit:10;" d="M 228.355469 125.546875 L 225.570312 136.050781 "/>
<path style="fill:none;stroke-width:1.2;stroke-linecap:butt;stroke-linejoin:miter;stroke:rgb(0%,0%,0%);stroke-opacity:1;stroke-miterlimit:10;" d="M 225.570312 136.050781 L 222.789062 146.558594 "/>
<path style="fill:none;stroke-width:1.2;stroke-linecap:butt;stroke-linejoin:miter;stroke:rgb(0%,0%,100%);stroke-opacity:1;stroke-miterlimit:10;" d="M 238.199219 161.886719 L 248.691406 159.042969 "/>
<path style="fill:none;stroke-width:1.2;stroke-linecap:butt;stroke-linejoin:miter;stroke:rgb(0%,0%,0%);stroke-opacity:1;stroke-miterlimit:10;" d="M 248.691406 159.042969 L 259.179688 156.203125 "/>
<path style=" stroke:none;fill-rule:nonzero;fill:rgb(100%,100%,100%);fill-opacity:1;" d="M 235.199219 156.386719 L 242.199219 156.386719 L 242.199219 167.386719 L 235.199219 167.386719 Z M 235.199219 156.386719 "/>
<g style="fill:rgb(0%,0%,100%);fill-opacity:1;">
  <use xlink:href="#glyph0-2" x="235.199219" y="165.049805"/>
</g>
<path style="fill:none;stroke-width:1.2;stroke-linecap:butt;stroke-linejoin:miter;stroke:rgb(0%,0%,0%);stroke-opacity:1;stroke-miterlimit:10;" d="M 259.179688 156.203125 L 264.75 135.191406 "/>
<path style="fill:none;stroke-width:1.2;stroke-linecap:butt;stroke-linejoin:miter;stroke:rgb(0%,0%,0%);stroke-opacity:1;stroke-miterlimit:10;" d="M 254.792969 152.792969 L 259.25 135.980469 "/>
<path style="fill:none;stroke-width:1.2;stroke-linecap:butt;stroke-linejoin:miter;stroke:rgb(0%,0%,0%);stroke-opacity:1;stroke-miterlimit:10;" d="M 264.75 135.191406 L 249.335938 119.863281 "/>
<path style="fill:none;stroke-width:1.2;stroke-linecap:butt;stroke-linejoin:miter;stroke:rgb(0%,0%,0%);stroke-opacity:1;stroke-miterlimit:10;" d="M 249.335938 119.863281 L 238.847656 122.703125 "/>
<path style="fill:none;stroke-width:1.2;stroke-linecap:butt;stroke-linejoin:miter;stroke:rgb(0%,0%,100%);stroke-opacity:1;stroke-miterlimit:10;" d="M 238.847656 122.703125 L 228.355469 125.546875 "/>
<path style="fill:none;stroke-width:1.2;stroke-linecap:butt;stroke-linejoin:miter;stroke:rgb(0%,0%,0%);stroke-opacity:1;stroke-miterlimit:10;" d="M 248.578125 125.367188 L 240.183594 127.640625 "/>
<path style="fill:none;stroke-width:1.2;stroke-linecap:butt;stroke-linejoin:miter;stroke:rgb(0%,0%,100%);stroke-opacity:1;stroke-miterlimit:10;" d="M 240.183594 127.640625 L 231.792969 129.914062 "/>
<path style=" stroke:none;fill-rule:nonzero;fill:rgb(100%,100%,100%);fill-opacity:1;" d="M 225.355469 120.046875 L 232.355469 120.046875 L 232.355469 131.046875 L 225.355469 131.046875 Z M 225.355469 120.046875 "/>
<g style="fill:rgb(0%,0%,100%);fill-opacity:1;">
  <use xlink:href="#glyph0-2" x="225.355469" y="128.709961"/>
</g>
<path style="fill:none;stroke-width:1.2;stroke-linecap:butt;stroke-linejoin:miter;stroke:rgb(0%,0%,0%);stroke-opacity:1;stroke-miterlimit:10;" d="M 144.429688 148.277344 L 123.449219 153.960938 "/>
</g>
</svg>

<svg xmlns="http://www.w3.org/2000/svg" xmlns:xlink="http://www.w3.org/1999/xlink" width="300pt" height="300pt" viewBox="0 0 300 300"><defs><symbol overflow="visible"><path d="M.453 1.594v-7.938h4.5v7.938zm.5-.5h3.5v-6.938h-3.5zm0 0"/></symbol><symbol overflow="visible" id="a"><path d="M3.547-5.953c-.65 0-1.164.242-1.547.72-.375.48-.563 1.13-.563 1.952 0 .835.188 1.49.563 1.967.383.48.898.72 1.547.72.644 0 1.156-.24 1.53-.72.376-.476.564-1.132.564-1.968 0-.822-.187-1.474-.562-1.954-.375-.477-.887-.72-1.53-.72zm0-.734c.914 0 1.648.312 2.203.937.55.617.828 1.438.828 2.47 0 1.042-.277 1.87-.828 2.483-.555.617-1.29.922-2.203.922-.93 0-1.668-.305-2.22-.922C.774-1.41.5-2.237.5-3.28c0-1.033.273-1.853.828-2.47.55-.625 1.29-.938 2.22-.938zm0 0"/></symbol><symbol overflow="visible" id="b"><path d="M.89-6.563H2.08l2.906 5.485v-5.484h.86V0H4.656L1.75-5.484V0H.89zm0 0"/></symbol></defs><g><path fill="#fff" d="M0 0h300v300H0z"/><path d="M40.82 98.332l-2.785 10.504" stroke-width="1.2" stroke="#000" stroke-miterlimit="10" fill="none"/><path d="M38.035 108.836l-2.785 10.508M35.25 119.344l7.707 7.664" stroke-width="1.2" stroke="#f00" stroke-miterlimit="10" fill="none"/><path d="M42.957 127.008l7.707 7.664" stroke-width="1.2" stroke="#000" stroke-miterlimit="10" fill="none"/><path d="M31.25 113.844h8v11h-8zm0 0" fill="#fff"/><use xlink:href="#a" x="31.25" y="122.507" fill="#f00"/><path d="M50.664 134.672l20.98-5.684M54.098 139.04l16.785-4.548M45.094 155.684l5.57-21.012M71.645 128.988l15.41 15.328M87.055 144.316l-5.567 21.012M81.555 145.11l-4.453 16.808M81.488 165.328l-20.98 5.684M81.488 165.328l15.41 15.328M60.508 171.012l-15.414-15.328M62.57 165.852L50.242 153.59M94.43 180.004l-2.785 10.504" stroke-width="1.2" stroke="#000" stroke-miterlimit="10" fill="none"/><path d="M91.645 190.508l-2.786 10.508" stroke-width="1.2" stroke="#f00" stroke-miterlimit="10" fill="none"/><path d="M99.37 181.313l-2.784 10.507" stroke-width="1.2" stroke="#000" stroke-miterlimit="10" fill="none"/><path d="M96.586 191.82l-2.78 10.504" stroke-width="1.2" stroke="#f00" stroke-miterlimit="10" fill="none"/><path d="M96.898 180.656l10.493-2.84" stroke-width="1.2" stroke="#000" stroke-miterlimit="10" fill="none"/><path d="M107.39 177.816l10.493-2.843" stroke-width="1.2" stroke="#00f" stroke-miterlimit="10" fill="none"/><path d="M87.332 196.168h8v11h-8zm0 0" fill="#fff"/><use xlink:href="#a" x="87.332" y="204.831" fill="#f00"/><path d="M117.883 174.973l7.703 7.664" stroke-width="1.2" stroke="#00f" stroke-miterlimit="10" fill="none"/><path d="M125.586 182.637l7.707 7.664M123.45 153.96l-2.786 10.51" stroke-width="1.2" stroke="#000" stroke-miterlimit="10" fill="none"/><path d="M120.664 164.47l-2.78 10.503" stroke-width="1.2" stroke="#00f" stroke-miterlimit="10" fill="none"/><path d="M114.883 169.473h7v11h-7zm0 0" fill="#fff"/><use xlink:href="#b" x="114.883" y="178.136" fill="#00f"/><path d="M133.293 190.3l20.98-5.68M154.273 184.62l5.57-21.015M159.844 163.605l15.414 15.333M159.844 163.605l-15.414-15.328M165.414 142.594l-5.57 21.01M175.258 178.938l20.98-5.684M196.238 173.254l2.785-10.508" stroke-width="1.2" stroke="#000" stroke-miterlimit="10" fill="none"/><path d="M199.023 162.746l2.782-10.504M201.805 152.242l-7.703-7.664" stroke-width="1.2" stroke="#00f" stroke-miterlimit="10" fill="none"/><path d="M194.102 144.578l-7.707-7.668" stroke-width="1.2" stroke="#000" stroke-miterlimit="10" fill="none"/><path d="M201.805 152.242l10.492-2.844" stroke-width="1.2" stroke="#00f" stroke-miterlimit="10" fill="none"/><path d="M212.297 149.398l10.492-2.84" stroke-width="1.2" stroke="#000" stroke-miterlimit="10" fill="none"/><path d="M198.805 146.742h7v11h-7zm0 0" fill="#fff"/><use xlink:href="#b" x="198.805" y="155.405" fill="#00f"/><path d="M186.395 136.91l-20.98 5.684M222.79 146.56l7.702 7.663" stroke-width="1.2" stroke="#000" stroke-miterlimit="10" fill="none"/><path d="M230.492 154.223l7.707 7.664" stroke-width="1.2" stroke="#00f" stroke-miterlimit="10" fill="none"/><path d="M227.934 144.465l6.168 6.13" stroke-width="1.2" stroke="#000" stroke-miterlimit="10" fill="none"/><path d="M234.102 150.594l6.164 6.133M228.355 125.547l-2.785 10.504" stroke-width="1.2" stroke="#00f" stroke-miterlimit="10" fill="none"/><path d="M225.57 136.05l-2.78 10.51" stroke-width="1.2" stroke="#000" stroke-miterlimit="10" fill="none"/><path d="M238.2 161.887l10.49-2.844" stroke-width="1.2" stroke="#00f" stroke-miterlimit="10" fill="none"/><path d="M248.69 159.043l10.49-2.84" stroke-width="1.2" stroke="#000" stroke-miterlimit="10" fill="none"/><path d="M235.2 156.387h7v11h-7zm0 0" fill="#fff"/><use xlink:href="#b" x="235.199" y="165.05" fill="#00f"/><path d="M259.18 156.203l5.57-21.012M254.793 152.793l4.457-16.813M264.75 135.19l-15.414-15.327M249.336 119.863l-10.488 2.84" stroke-width="1.2" stroke="#000" stroke-miterlimit="10" fill="none"/><path d="M238.848 122.703l-10.493 2.844" stroke-width="1.2" stroke="#00f" stroke-miterlimit="10" fill="none"/><path d="M248.578 125.367l-8.394 2.274" stroke-width="1.2" stroke="#000" stroke-miterlimit="10" fill="none"/><path d="M240.184 127.64l-8.39 2.274" stroke-width="1.2" stroke="#00f" stroke-miterlimit="10" fill="none"/><path d="M225.355 120.047h7v11h-7zm0 0" fill="#fff"/><use xlink:href="#b" x="225.355" y="128.71" fill="#00f"/><path d="M144.43 148.277l-20.98 5.684" stroke-width="1.2" stroke="#000" stroke-miterlimit="10" fill="none"/></g></svg>
